assets/icons/qvision/voice_over_off.svg

<svg xmlns="http://www.w3.org/2000/svg" height="24" viewBox="0 0 24 24" width="24"><path d="M0 0h24v24H0V0z" fill="none"/><path d="M12.99 9.18c0-.06.01-.12.01-.18 0-2.21-1.79-4-4-4-.06 0-.12.01-.18.01l4.17 4.17zm-6.1-3.56L4.27 3 3 4.27l2.62 2.62C5.23 7.5 5 8.22 5 9c0 2.21 1.79 4 4 4 .78 0 1.5-.23 2.11-.62L19.73 21 21 19.73l-8.62-8.62-5.49-5.49zM9 15c-2.67 0-8 1.34-8 4v2h16v-2c0-2.66-5.33-4-8-4zm7.76-9.64l-1.68 1.69c.84 1.18.84 2.71 0 3.89l1.68 1.69c2.02-2.02 2.02-5.07 0-7.27zM20.07 2l-1.63 1.63c2.77 3.02 2.77 7.56 0 10.74L20.07 16c3.9-3.89 3.91-9.95 0-14z"/></svg>

<svg width="24" height="24" viewBox="0 0 24 24" fill="none" xmlns="http://www.w3.org/2000/svg">
<g clip-path="url(#clip0_147_5004)">
<path d="M12.99 9.18C12.99 9.12 13 9.06 13 9C13 6.79 11.21 5 9 5C8.94 5 8.88 5.01 8.82 5.01L12.99 9.18ZM6.89 5.62L4.27 3L3 4.27L5.62 6.89C5.23 7.5 5 8.22 5 9C5 11.21 6.79 13 9 13C9.78 13 10.5 12.77 11.11 12.38L19.73 21L21 19.73L12.38 11.11L6.89 5.62ZM9 15C6.33 15 1 16.34 1 19V21H17V19C17 16.34 11.67 15 9 15ZM16.76 5.36L15.08 7.05C15.92 8.23 15.92 9.76 15.08 10.94L16.76 12.63C18.78 10.61 18.78 7.56 16.76 5.36ZM20.07 2L18.44 3.63C21.21 6.65 21.21 11.19 18.44 14.37L20.07 16C23.97 12.11 23.98 6.05 20.07 2Z" fill="#323232"/>
</g>
<defs>
<clipPath id="clip0_147_5004">
<rect width="24" height="24" fill="white"/>
</clipPath>
</defs>
</svg>
